build/img/search-icon.svg

<svg width="18" height="18" viewBox="0 0 18 18" fill="none" xmlns="http://www.w3.org/2000/svg">
<path fill-rule="evenodd" clip-rule="evenodd" d="M11.43 10.73L11.71 11H12.5L16.7843 15.2929C17.1742 15.6835 17.1738 16.3162 16.7836 16.7064L16.7064 16.7836C16.3162 17.1738 15.6835 17.1742 15.2929 16.7843L11 12.5V11.71L10.73 11.43C9.59 12.41 8.11 13 6.5 13C2.91 13 0 10.09 0 6.5C0 2.91 2.91 0 6.5 0C10.09 0 13 2.91 13 6.5C13 8.11 12.41 9.59 11.43 10.73ZM6.5 2C4.01 2 2 4.01 2 6.5C2 8.99 4.01 11 6.5 11C8.99 11 11 8.99 11 6.5C11 4.01 8.99 2 6.5 2Z" fill="#9B8869"/>
</svg>

<svg width="18" height="18" fill="none" xmlns="http://www.w3.org/2000/svg"><path fill-rule="evenodd" clip-rule="evenodd" d="M11.43 10.73l.28.27h.79l4.284 4.293a1 1 0 010 1.413l-.078.078a1 1 0 01-1.413 0L11 12.5v-.79l-.27-.28A6.471 6.471 0 016.5 13 6.5 6.5 0 1113 6.5c0 1.61-.59 3.09-1.57 4.23zM6.5 2C4.01 2 2 4.01 2 6.5S4.01 11 6.5 11 11 8.99 11 6.5 8.99 2 6.5 2z" fill="#9B8869"/></svg>
